X:0
T:Bonny at Morn
M:3/4
L:1/8
Q:1/4=120
K:AMin
B2|e3  f ed|e2 A2 Bc|d3  c BA|G2A2
B2|e3  f ed|e2 A2 Bc|d2 B2 G2|A4:|
z2|A2 a2 a2|A4    Bc|B2 g2 g2|G4
B2|AG AB cd|e2 a2 g2|e2 g2 B2|A4:|
